X:1
T: The Black Kilt Purse
T: Sporran Mullach
C:Alexander Walker
R:Strathspey
Q:128
K:Am
M:4/4
L:1/16
|:CB,|A,3B, C3D EA3 A3c|B3G BcdB G4 G3B,|A,3B, C3D E3D EA3|cBcd e3^G A6CB,|
A,3B, C3D EA3 A3c|B3G BcdB G4 G3B,|A,3B, C3D E3D EA3|cBcd e3^G A6^g2|
aA3 a3^g aA3 c3e|ga3 gB3 G4 G3^g|aA3 a3^g aA3 c3d|ede^f gB3 A4 A3^g|
aA3 a3^g aA3 c3e|dB3 g3B G4 G3B|((3A2B2c2) ((3B2c2d2) ce3 e3a|g^fed gB3 A6:|
